X: 10
T:Glenburnie Rant
M:4/4
L:1/8
S:Gow Collection
R:Reel
K:Em
"Em"E2 EF E2 EF|"D"DEFG AFDF| "Em"EDEF E2 B2|"B7"efe^d "Em"e2 e2:||!
"Em"e2 ef g2 fe|"D"defg afdf|"Em"e2 ef "C"g2 fe|"B7"efe^d "Em"e2 e2|!
"Em"e2 ef "A7"g2 fe|"D"defg afdf|"Em"g2 ag "D"f2 gf|"Em"ef"B7"e^d "Em"e2
 e2||
